X:238
%%etbk:tnset id:74,pos:3,rep:3x,ant:
%%etbk:wsite http://www.thesession.org/tunes/display/510
%%etbk:pldat 2015-04-21T15:25,2015-03-26T18:12,2014-04-08T17:23,2014-03-27T17:59,2014-02-16T14:23,2014-02-05T16:06,2013-12-11T16:27,2013-10-07T18:52,2013-08-29T16:56,2013-08-27T18:13,2013-05-12T18:46
T: Father Hanley's
T: Rambler, The
Z: Piano Box Version by Martin Fleischmann
H: Created 2013-02-19 /  Last Modified 2013-02-19
M: 6/8
L: 1/8
R: jig
K: Amaj
|: !1!E !3!(3E!2!E!1!E E2 !4!A|!2!F!1!EE E2 !4!e|!5!f!4!e!3!c !1!ABc|!2!BBB B!1!A!2!F|
|!1!E!2!C!1!E E2 !4!A|!2!F!1!EE E2 !4!e|!5!fec ABc|1 BBA !1!A2 !2!F :|2 BBA !1!A2!5!e||
|: !5!e!3!c!1!A !1!A!2!c!3!e|!5!a!3!ff fa!3!f|!1!e!3!c!1!A !5!e!4!d!3!c|!2!BBB Bcd|
|!5!ecA !1!A!2!c!3!e|!5!aff faf|!1!e!3!c!1!A !2!BAB|1 cAA A2c:|2 cAA A2 F||


